X: 1
T: Boyberiker Hora
R: horra, joc/zhok
S: Clayton March
Z: 2013 John Chambers <jc:trillian.mit.edu>
M: 3/8
L: 1/16
K: Dm
|:\
D3BAG | F3GFE | D6 | F4A,2 | D2E2F2 | G2F2E2 | F6 | D4A,2 | D3BAG |
F3GFE | D6 | G6 | F3GGF | F3D_EC |1 D6- | D4 A,2 :| D6- | D3_EDC |
C2D2_E2 | D6 | ^F2_EEDC | C3 BAG | ^F2G2A2 | G2^F2A2 | G6 | ^F2D_EDC |
C2D2_E2 | D6 | ^F2_EEDC | C3 AB=B | c3_BAG | ^F3D_EC | D6- | D3CD_E |
|:\
F6- | F4C2 | c6- | c4A2 | d3ccB | B3AcB | A6- | A6 |
C2F2G2 | A6 | G3DBA | G6 | F6GGF | F3D_EC | D6- | D6 :|
